packages/icons/src/emoji/svg/hospital.svg

<svg width="120" height="120" viewBox="0 0 120 120" fill="none" xmlns="http://www.w3.org/2000/svg">
<g clip-path="url(#clip0_212_148)">
<path d="M36.9941 95.8313H81.966V120H36.9941V95.8313Z" fill="#006CA2"/>
<path d="M75.7686 41.9627V9.0752H44.3998V41.9627H9.4873V98.6252H108.656V41.9627H75.7686Z" fill="#006CA2"/>
<path d="M106.697 34.5939H89.8596C87.9564 34.5939 86.2596 34.3502 85.1814 33.4689C84.1314 32.6064 83.8314 30.9283 83.8033 29.6064V12.3564C83.8033 7.24707 79.6221 3.0752 74.5221 3.0752H45.4689C40.3596 3.0752 36.1783 7.24707 36.1783 12.3564V29.6064C36.1596 30.9283 35.8502 32.6064 34.8096 33.4689C33.7314 34.3596 32.0346 34.5939 30.1314 34.5939H13.3033C8.18457 34.5939 4.0127 38.7658 4.0127 43.8846V120H44.4377V107.831C44.4377 104.981 46.7533 102.647 49.6127 102.647H70.3783C73.2283 102.647 75.5627 104.981 75.5627 107.831V120H115.997V43.8846C115.988 38.7658 111.806 34.5939 106.697 34.5939ZM27.0752 89.1752H15.5252V74.4564H27.0752V89.1752ZM27.0752 65.7846H15.5252V51.0658H27.0752V65.7846ZM46.4252 89.1752H34.8752V74.4564H46.4252V89.1752ZM46.4252 65.7846H34.8752V51.0658H46.4252V65.7846ZM65.7658 89.1752H54.2064V74.4564H65.7658V89.1752ZM65.7658 65.7846H54.2064V51.0658H65.7658V65.7846ZM85.1064 89.1752H73.5658V74.4564H85.1064V89.1752ZM85.1064 65.7846H73.5658V51.0658H85.1064V65.7846ZM104.456 89.1752H92.9064V74.4564H104.456V89.1752ZM104.456 65.7846H92.9064V51.0658H104.456V65.7846Z" fill="#40C0E7"/>
<path d="M70.3031 25.5001C70.3031 26.5501 69.45 27.4126 68.4 27.4126H65.2875C64.2375 27.4126 63.375 28.2751 63.375 29.3251V32.4376C63.375 33.4876 62.5125 34.3501 61.4625 34.3501H58.5375C57.4875 34.3501 56.625 33.4876 56.625 32.4376V29.3251C56.625 28.2751 55.7625 27.4126 54.7125 27.4126H51.6C50.55 27.4126 49.6875 26.5501 49.6875 25.5001V22.5751C49.6875 21.5251 50.55 20.6626 51.6 20.6626H54.7125C55.7625 20.6626 56.625 19.8001 56.625 18.7501V15.6376C56.625 14.5876 57.4875 13.7251 58.5375 13.7251H61.4625C62.5125 13.7251 63.375 14.5876 63.375 15.6376V18.7501C63.375 19.8001 64.2375 20.6626 65.2875 20.6626H68.4C69.45 20.6626 70.3031 21.5251 70.3031 22.5751V25.5001Z" fill="#ED6C30"/>
</g>
<defs>
<clipPath id="clip0_212_148">
<rect width="120" height="120" fill="white"/>
</clipPath>
</defs>
</svg>

<svg xmlns="http://www.w3.org/2000/svg" fill="none" aria-hidden="true" data-slot="icon" viewBox="0 0 120 120"><g clip-path="url(#a)"><path fill="#006CA2" d="M36.994 95.831h44.972V120H36.994z"/><path fill="#006CA2" d="M75.769 41.963V9.075h-31.37v32.888H9.488v56.662h99.169V41.963z"/><path fill="#40C0E7" d="M106.697 34.594H89.86c-1.904 0-3.6-.244-4.679-1.125-1.05-.863-1.35-2.54-1.378-3.863v-17.25c0-5.109-4.18-9.28-9.28-9.28H45.468c-5.11 0-9.29 4.171-9.29 9.28v17.25c-.02 1.322-.329 3-1.37 3.863-1.078.89-2.774 1.125-4.678 1.125H13.303c-5.118 0-9.29 4.172-9.29 9.29V120h40.425v-12.169c0-2.85 2.315-5.184 5.175-5.184h20.765c2.85 0 5.185 2.334 5.185 5.184V120h40.434V43.885c-.009-5.12-4.191-9.291-9.3-9.291M27.075 89.175h-11.55V74.456h11.55zm0-23.39h-11.55v-14.72h11.55zm19.35 23.39h-11.55V74.456h11.55zm0-23.39h-11.55v-14.72h11.55zm19.34 23.39H54.207V74.456h11.56zm0-23.39H54.207v-14.72h11.56zm19.341 23.39h-11.54V74.456h11.54zm0-23.39h-11.54v-14.72h11.54zm19.35 23.39h-11.55V74.456h11.55zm0-23.39h-11.55v-14.72h11.55z"/><path fill="#ED6C30" d="M70.303 25.5c0 1.05-.853 1.913-1.903 1.913h-3.113a1.92 1.92 0 0 0-1.912 1.912v3.113a1.92 1.92 0 0 1-1.913 1.912h-2.925a1.92 1.92 0 0 1-1.912-1.912v-3.113a1.92 1.92 0 0 0-1.913-1.912H51.6a1.92 1.92 0 0 1-1.913-1.913v-2.925a1.92 1.92 0 0 1 1.913-1.912h3.112a1.92 1.92 0 0 0 1.913-1.913v-3.112a1.92 1.92 0 0 1 1.913-1.913h2.925a1.92 1.92 0 0 1 1.912 1.913v3.112a1.92 1.92 0 0 0 1.912 1.913H68.4c1.05 0 1.903.862 1.903 1.912z"/></g><defs><clipPath id="a"><path fill="#fff" d="M0 0h120v120H0z"/></clipPath></defs></svg>
